.github/delta_logo.svg

<svg xmlns="http://www.w3.org/2000/svg" viewBox="0 0 192 192"><path d="M85.51 33.42a14.86 14.86 0 1 0 21-21 14.65 14.65 0 0 0-21 0 14.91 14.91 0 0 0 0 21Z" style="fill:#ff837d;fill-rule:evenodd"/><path d="M85.51 179.62a14.79 14.79 0 1 0 0-20.85 14.65 14.65 0 0 0 0 20.85Z" style="fill:#b1b5bd;fill-rule:evenodd"/><path d="M122.09 143.18a14.86 14.86 0 1 0 0-21.05 15 15 0 0 0 0 21.05Z" style="fill:#bd9aff;fill-rule:evenodd"/><path d="M158.67 106.52a14.86 14.86 0 1 0 0-21 15 15 0 0 0 0 21Z" style="fill:#f9de81;fill-rule:evenodd"/><path d="M48.94 143.18a14.86 14.86 0 1 0 0-21.05 15 15 0 0 0 0 21.05Z" style="fill:#96dfd3;fill-rule:evenodd"/><path d="M85.51 106.52a14.86 14.86 0 1 0 0-21 15 15 0 0 0 0 21Z" style="fill:#9abeff;fill-rule:evenodd"/><path d="M122.09 69.89a14.79 14.79 0 1 0 0-20.87 14.62 14.62 0 0 0 0 20.87Z" style="fill:#f8c18c;fill-rule:evenodd"/><path d="M12.35 106.52a14.86 14.86 0 1 0 0-21 15 15 0 0 0 0 21Z" style="fill:#d3b69a;fill-rule:evenodd"/><path d="M48.94 69.89a14.79 14.79 0 1 0 0-20.87 14.62 14.62 0 0 0 0 20.87Z" style="fill:#98dc9a;fill-rule:evenodd"/></svg>

<svg xmlns="http://www.w3.org/2000/svg" viewBox="0 0 192 192"><path d="M85.51,33.42a14.86,14.86,0,1,0,21-21,14.65,14.65,0,0,0-21,0A14.91,14.91,0,0,0,85.51,33.42Z" style="fill:#ff837d;fill-rule:evenodd"/><path d="M85.51,179.62a14.79,14.79,0,1,0,0-20.85A14.65,14.65,0,0,0,85.51,179.62Z" style="fill:#b1b5bd;fill-rule:evenodd"/><path d="M122.09,143.18a14.86,14.86,0,1,0,0-21.05A15,15,0,0,0,122.09,143.18Z" style="fill:#bd9aff;fill-rule:evenodd"/><path d="M158.67,106.52a14.86,14.86,0,1,0,0-21A15,15,0,0,0,158.67,106.52Z" style="fill:#f9de81;fill-rule:evenodd"/><path d="M48.94,143.18a14.86,14.86,0,1,0,0-21.05A15,15,0,0,0,48.94,143.18Z" style="fill:#96dfd3;fill-rule:evenodd"/><path d="M85.51,106.52a14.86,14.86,0,1,0,0-21A15,15,0,0,0,85.51,106.52Z" style="fill:#9abeff;fill-rule:evenodd"/><path d="M122.09,69.89a14.79,14.79,0,1,0,0-20.87A14.62,14.62,0,0,0,122.09,69.89Z" style="fill:#f8c18c;fill-rule:evenodd"/><path d="M12.35,106.52a14.86,14.86,0,1,0,0-21A15,15,0,0,0,12.35,106.52Z" style="fill:#d3b69a;fill-rule:evenodd"/><path d="M48.94,69.89a14.79,14.79,0,1,0,0-20.87A14.62,14.62,0,0,0,48.94,69.89Z" style="fill:#98dc9a;fill-rule:evenodd"/></svg>
